packages/ui-icons/svg/Line/github.svg

<svg viewBox="0 0 1920 1920" version="1.1" xmlns="http://www.w3.org/2000/svg">
    <path d="M1873.25625,674.211853 C1873.25625,551.744383 1837.5276,443.589895 1766.93124,352.331182 C1782.64323,294.648788 1799.43139,180.360165 1746.16127,38.6293575 C1740.56522,23.5630606 1728.29695,11.8328723 1713.01542,6.55966837 C1693.8597,-0.00493241863 1590.87079,-23.7881582 1384.46253,117.512183 C1300.3065,95.3432036 1211.52296,83.9358645 1119.61855,83.3977825 C1028.03699,83.9358645 939.253454,95.3432036 855.312657,117.512183 C648.689157,-23.6805418 545.700256,-0.00493241863 526.43692,6.55966837 C511.15539,11.7252559 498.88712,23.5630606 493.291066,38.7369739 C440.128562,180.360165 456.916721,294.648788 472.736333,352.331182 C402.032354,443.912744 366.19609,551.959616 366.19609,674.211853 C366.19609,1097.03671 588.10112,1231.34199 798.383578,1279.87699 C751.893291,1330.77955 703.143059,1405.03487 692.704267,1499.41446 C620.924124,1525.45763 435.070591,1577.54397 367.595104,1455.39935 C364.581844,1449.80329 294.200715,1317.75796 152.577524,1307.31917 C127.502901,1308.50295 67.9910285,1311.62383 51.5257183,1361.66546 C33.0156964,1417.62599 91.0209394,1459.38115 119.431671,1479.07496 C119.969753,1479.39781 175.176969,1511.03703 213.273177,1611.12029 C214.241725,1615.74779 237.056403,1725.83938 348.224151,1792.66916 C435.716289,1845.4012 550.542995,1856.16284 689.475775,1824.95409 C689.475775,1848.41446 689.152926,1873.16624 689.04531,1888.34015 L688.72246,1919.44129 L796.338867,1919.44129 L796.5541,1889.63155 C798.491195,1728.09932 798.598811,1724.97845 765.775807,1707.97505 C753.292304,1701.51807 738.764089,1700.01144 725.419655,1704.3161 C589.177284,1745.31795 478.440002,1744.3494 405.368462,1701.51807 C334.879716,1659.97814 319.382954,1592.61027 316.477311,1581.84862 C312.60312,1571.1946 308.40608,1561.18627 304.20904,1551.60841 C431.1964,1697.32103 676.346574,1628.76938 767.49767,1585.39997 C786.330541,1576.57542 798.275962,1557.63493 798.275962,1536.86497 C798.275962,1387.49339 946.57137,1292.68334 948.078,1291.71479 C967.448953,1279.55414 977.026813,1256.52423 972.076458,1234.35525 C967.126104,1212.07865 948.723698,1195.29049 926.016636,1192.60008 C702.389744,1165.8036 473.812497,1083.26181 473.812497,674.211853 C473.812497,567.886844 507.388816,475.229118 573.572906,399.036702 C586.486874,383.970405 590.253449,362.985206 583.150766,344.475184 C573.357673,319.077712 546.668804,231.69319 582.827917,109.656186 C618.556563,113.745609 693.672815,133.977494 813.987957,219.963002 C827.332392,229.540862 844.4434,232.338889 860.370629,227.819 C940.8677,204.251007 1030.7274,191.552271 1119.61855,191.014189 C1208.94017,191.552271 1298.69225,204.251007 1379.40456,227.819 C1395.33178,232.338889 1412.33518,229.540862 1425.78723,219.963002 C1546.9633,133.331795 1622.18717,113.530376 1656.5168,109.333336 C1692.99876,231.477958 1666.3099,319.077712 1656.5168,344.475184 C1649.3065,362.985206 1653.07308,384.078022 1666.09466,399.036702 C1732.17114,475.013885 1765.63984,567.563995 1765.63984,674.211853 C1765.63984,1083.36943 1536.52451,1165.37313 1312.46715,1191.73915 C1291.48195,1194.21433 1273.83286,1208.63493 1267.48349,1228.7592 C1261.02651,1248.77585 1266.94541,1270.83721 1282.54979,1285.04258 C1288.89916,1290.74625 1297.50847,1297.52608 1307.62441,1305.27446 C1358.95744,1344.55445 1444.83533,1410.30807 1444.83533,1564.84523 C1444.83533,1650.29266 1443.43632,1919.11844 1443.43632,1919.11844 L1551.05272,1919.65652 C1551.05272,1919.65652 1552.45174,1650.40028 1552.45174,1564.84523 C1552.45174,1423.00681 1495.95312,1334.86897 1441.60684,1278.90844 C1651.99691,1230.48106 1873.25625,1096.39102 1873.25625,674.211853" stroke="none" stroke-width="1" fill-rule="evenodd"/>
</svg>

<svg viewBox="0 0 1920 1920" version="1.1" xmlns="http://www.w3.org/2000/svg">
    <path d="M1873.256 674.212c0-122.468-35.728-230.622-106.325-321.88 15.712-57.683 32.5-171.972-20.77-313.703-5.596-15.066-17.864-26.796-33.146-32.07-19.155-6.564-122.144-30.347-328.552 110.953-84.157-22.169-172.94-33.576-264.844-34.114-91.582.538-180.366 11.945-264.306 34.114C648.689-23.68 545.7-.005 526.437 6.56c-15.282 5.165-27.55 17.003-33.146 32.177-53.162 141.623-36.374 255.912-20.555 313.594-70.704 91.582-106.54 199.629-106.54 321.88 0 422.826 221.905 557.131 432.188 605.666-46.49 50.903-95.24 125.158-105.68 219.537-71.78 26.044-257.633 78.13-325.109-44.015-3.013-5.596-73.394-137.641-215.017-148.08-25.075 1.184-84.587 4.305-101.052 54.346-18.51 55.961 39.495 97.716 67.906 117.41.538.323 55.745 31.962 93.841 132.045.969 4.628 23.783 114.72 134.951 181.55 87.492 52.731 202.319 63.493 341.252 32.284 0 23.46-.323 48.212-.43 63.386l-.324 31.101H796.34l.215-29.81c1.937-161.532 2.045-164.653-30.778-181.656-12.484-6.457-27.012-7.964-40.356-3.659-136.243 41.002-246.98 40.033-320.052-2.798-70.488-41.54-85.985-108.908-88.89-119.67-3.875-10.653-8.072-20.662-12.269-30.24 126.987 145.713 372.138 77.161 463.289 33.792 18.833-8.825 30.778-27.765 30.778-48.535 0-149.372 148.295-244.182 149.802-245.15 19.371-12.16 28.949-35.19 23.998-57.36-4.95-22.276-23.352-39.065-46.06-41.755-223.626-26.796-452.204-109.338-452.204-518.388 0-106.325 33.577-198.983 99.76-275.175 12.915-15.067 16.681-36.052 9.579-54.562-9.793-25.397-36.482-112.782-.323-234.819 35.729 4.09 110.845 24.321 231.16 110.307 13.344 9.578 30.455 12.376 46.383 7.856 80.497-23.568 170.356-36.267 259.248-36.805 89.321.538 179.073 13.237 259.786 36.805 15.927 4.52 32.93 1.722 46.382-7.856 121.176-86.631 196.4-106.433 230.73-110.63 36.482 122.145 9.793 209.745 0 235.142-7.21 18.51-3.444 39.603 9.578 54.562 66.076 75.977 99.545 168.527 99.545 275.175 0 409.157-229.115 491.161-453.173 517.527-20.985 2.475-38.634 16.896-44.984 37.02-6.456 20.017-.538 42.078 15.067 56.284 6.35 5.703 14.958 12.483 25.074 20.231 51.333 39.28 137.211 105.034 137.211 259.571 0 85.448-1.399 354.273-1.399 354.273l107.617.539s1.399-269.257 1.399-354.812c0-141.838-56.499-229.976-110.845-285.937 210.39-48.427 431.65-182.517 431.65-604.696" stroke="none" stroke-width="1" fill-rule="evenodd"/>
</svg>
